icon/ir/medium.svg

<svg stroke-width="1.5" viewBox="0 0 24 24" fill="none" xmlns="http://www.w3.org/2000/svg" height="1em" width="1em">
  <path d="M7 16C9.20914 16 11 14.2091 11 12C11 9.79086 9.20914 8 7 8C4.79086 8 3 9.79086 3 12C3 14.2091 4.79086 16 7 16Z" stroke="currentColor" stroke-linecap="round" stroke-linejoin="round"/>
  <path d="M15 16C16.1046 16 17 14.2091 17 12C17 9.79086 16.1046 8 15 8C13.8954 8 13 9.79086 13 12C13 14.2091 13.8954 16 15 16Z" stroke="currentColor" stroke-linecap="round" stroke-linejoin="round"/>
  <path d="M20 16C20.5523 16 21 14.2091 21 12C21 9.79086 20.5523 8 20 8C19.4477 8 19 9.79086 19 12C19 14.2091 19.4477 16 20 16Z" stroke="currentColor" stroke-linecap="round" stroke-linejoin="round"/>
</svg>

<svg width="24" height="24" stroke-width="1.5" fill="none" xmlns="http://www.w3.org/2000/svg"><path d="M7 16a4 4 0 1 0 0-8 4 4 0 0 0 0 8ZM15 16c1.105 0 2-1.79 2-4s-.895-4-2-4-2 1.79-2 4 .895 4 2 4ZM20 16c.552 0 1-1.79 1-4s-.448-4-1-4-1 1.79-1 4 .448 4 1 4Z" stroke="currentColor" stroke-linecap="round" stroke-linejoin="round"/></svg>
